X: 1
T: Ife's March
M: 2/4
L: 1/8
R: polka
K: Dmaj
de |:f2 fg fe dc |B2 Bc A3 F |G3 A dc Bc |d2 de f2 fg |
a3 b ag fe |d2 dc A3 F |G3 A dc BA |d3 d D2 de :|
|:fe fd ec dB |cB AG AF D2 |d3 c BA GA |d3 B AG FA |
Bc dB cd eA |fe dc Bd A2 |B3 A GA Bc |1d3 d D2 de:|2d3 d D4 |]
